X: 3380
T: Bennachie Sunrise
R: reel
M: 4/4
K: Amajor
|:E2 cA B3 c|E2 cA BAFA|E2 cA Bcdf|1 eccA BAFA:|2 eccA BAFE||
|:Aaae f4|e>fec BAFE|Aaae f3 e/f/|1 a>fec f3 e:|2 a>fec f4||

